!!!COM: Varèse, Edgard [Edgar] (Victor Achille Charles)
!!!OTL: Amériques (America) for Orchestra
!!!OMV:
!!!example: 418
!!!work: Var-1
**kern	**kern	**kern	**kern	**kern	**dynam	**kern	**dynam	**kern	**kern	**dynam	**kern	**dynam	**kern	**kern	**dynam	**kern	**dynam	**kern	**dynam	**kern	**kern	**kern	**dynam	**kern	**kern	**kern	**kern	**dynam	**kern	**kern	**kern	**kern	**kern	**kern	**kern	**kern	**kern	**kern	**kern	**dynam	**kern	**kern	**dynam	**kern	**dynam	**kern	**dynam	**kern	**kern	**dynam	**kern	**dynam	**kern	**dynam
*part38	*part37	*part36	*part35	*part34	*part34	*part33	*part33	*part32	*part31	*part31	*part30	*part30	*part29	*part28	*part28	*part27	*part27	*part26	*part26	*part25	*part24	*part23	*part23	*part22	*part21	*part20	*part20	*part20	*part19	*part18	*part17	*part16	*part15	*part14	*part13	*part12	*part11	*part10	*part9	*part9	*part8	*part7	*part7	*part6	*part6	*part5	*part5	*part4	*part3	*part3	*part2	*part2	*part1	*part1
*staff39	*staff38	*staff37	*staff36	*staff35	*	*staff34	*	*staff33	*staff32	*	*staff31	*	*staff30	*staff29	*	*staff28	*	*staff27	*	*staff26	*staff25	*staff24	*	*staff23	*staff22	*staff21	*staff20	*	*staff19	*staff18	*staff17	*staff16	*staff15	*staff14	*staff13	*staff12	*staff11	*staff10	*staff9	*	*staff8	*staff7	*	*staff6	*	*staff5	*	*staff4	*staff3	*	*staff2	*	*staff1	*
*I"Contrabass	*I"Violoncello	*I"Viola	*I"Violin II	*I"Violin I	*	*I"G.	*	*I"W.	*I"Tumb.	*	*I"C?	*	*I"Tri.	*I"B.D.	*	*I"Cym.	*	*I"S.D.	*	*I"R.	*I"S.B.	*I"Xylophone	*	*I"Timpani II.	*I"Timpani I.	*I"Harp I. II.	*	*	*I"C. Tuba	*I"Tuba	*I"Trpt. in C II.	*I"Trpt. in C I.	*I"Horn in F VIII.	*I"Horn in F VII.	*I"Horn in F VI.	*I"Horn in F V.	*I"Contrabassoon II.	*I"Contrabassoon I.	*I"Bassoon I. II. III.	*	*I"Bass Clarinet in Bb I. II. III.	*I"Clarinet in Bb	*	*I"Clarinet in Eb	*	*I"Heck.	*	*I"E. H.	*I"Oboe I. II. III.	*	*I"Flute I. II.	*	*I"Piccolo I. II. III.	*
*I'Cb.	*I'Vc.	*I'Vla.	*I'Vln. II	*I'Vln. I	*	*I'Perc.	*	*I'Perc.	*I'Perc.	*	*I'Perc.	*	*I'Perc.	*I'Perc.	*	*I'Perc.	*	*I'Perc.	*	*I'Perc.	*I'Perc.	*I'Xyl.	*	*I'Timp.	*I'Timp.	*I'Hp.	*	*	*I'Tba.	*I'Tba.	*I'C Tpt.	*I'C Tpt.	*I'Hn.	*I'Hn.	*I'Hn.	*I'Hn.	*I'Cbsn.	*I'Cbsn.	*I'Bsn.	*	*I'B. Cl.	*I'Cl.	*	*I'Eb Cl.	*	*I'Heckl.	*	*I'Eng. Hn.	*I'Ob.	*	*I'Fl.	*	*I'Picc.	*
!!pagebreak:original
*clefF4	*clefG2	*clefC3	*clefG2	*clefG2	*	*clefpercussion2	*	*clefpercussion2	*clefpercussion2	*	*clefpercussion2	*	*clefpercussion2	*clefpercussion2	*	*clefpercussion2	*	*clefpercussion2	*	*clefpercussion2	*clefpercussion2	*clefG2	*	*clefF4	*clefF4	*clefF4	*clefG2	*	*clefF4	*clefF4	*clefG2	*clefG2	*clefG2	*clefG2	*clefG2	*clefG2	*clefF4	*clefF4	*clefF4	*	*clefF4	*clefG2	*	*clefG2	*	*clefG2	*	*clefG2	*clefG2	*	*clefG2	*	*clefG2	*
*ITrd0c0	*	*	*	*	*	*	*	*	*	*	*	*	*	*	*	*	*	*	*	*	*	*ITrd0c0	*	*	*	*	*	*	*	*	*	*	*ITrd4c7	*ITrd4c7	*ITrd4c7	*ITrd4c7	*ITrd0c0	*ITrd0c0	*	*	*ITrd1c2	*ITrd1c2	*	*ITrd-2c-3	*	*ITrd0c0	*	*ITrd4c7	*	*	*	*	*ITrd0c0	*
*k[]	*k[]	*k[]	*k[]	*k[]	*	*k[]	*	*k[]	*k[]	*	*k[]	*	*k[]	*k[]	*	*k[]	*	*k[]	*	*k[]	*k[]	*k[]	*	*k[]	*k[]	*k[]	*k[]	*	*k[]	*k[]	*k[]	*k[]	*k[]	*k[]	*k[]	*k[]	*k[]	*k[]	*k[]	*	*k[]	*k[]	*	*k[]	*	*k[]	*	*k[]	*k[]	*	*k[]	*	*k[]	*
*C:	*C:	*C:	*C:	*C:	*	*C:	*	*C:	*C:	*	*C:	*	*C:	*C:	*	*C:	*	*C:	*	*C:	*C:	*C:	*	*C:	*C:	*C:	*C:	*	*C:	*C:	*C:	*C:	*C:	*C:	*C:	*C:	*C:	*C:	*C:	*	*C:	*C:	*	*C:	*	*C:	*	*C:	*C:	*	*C:	*	*C:	*
*M2/8	*M2/8	*M2/8	*M2/8	*M2/8	*	*M2/8	*	*M2/8	*M2/8	*	*M2/8	*	*M2/8	*M2/8	*	*M2/8	*	*M2/8	*	*M2/8	*M2/8	*M2/8	*	*M2/8	*M2/8	*M2/8	*M2/8	*	*M2/8	*M2/8	*M2/8	*M2/8	*M2/8	*M2/8	*M2/8	*M2/8	*M2/8	*M2/8	*M2/8	*	*M2/8	*M2/8	*	*M2/8	*	*M2/8	*	*M2/8	*M2/8	*	*M2/8	*	*M2/8	*
*MM121	*MM121	*MM121	*MM121	*MM121	*	*MM121	*	*MM121	*MM121	*	*MM121	*	*MM121	*MM121	*	*MM121	*	*MM121	*	*MM121	*MM121	*MM121	*	*MM121	*MM121	*MM121	*MM121	*	*MM121	*MM121	*MM121	*MM121	*MM121	*MM121	*MM121	*MM121	*MM121	*MM121	*MM121	*	*MM121	*MM121	*	*MM121	*	*MM121	*	*MM121	*MM121	*	*MM121	*	*MM121	*
=363	=	=	=	=	=	=	=	=	=	=	=	=	=	=	=	=	=	=	=	=	=	=	=	=	=	=	=	=	=	=	=	=	=	=	=	=	=	=	=	=	=	=	=	=	=	=	=	=	=	=	=	=	=	=
4r	4r	4r	4r	4r	.	[4x	pp	4r	8r	.	8x'	.	8r	[4x	p	[4x	p	4r	.	4r	4x^	4r	.	4r	4r	4r	4r	.	4r	4r	4r	4r	4r	4r	4r	4r	4r	4r	4r	.	4r	4r	.	(>20aaa--XLL	.	4r	.	4r	(>20ggLL	.	(>20gggLL	.	(>20gggLL	.
.	.	.	.	.	.	.	.	.	.	.	.	.	.	.	.	.	.	.	.	.	.	.	.	.	.	.	.	.	.	.	.	.	.	.	.	.	.	.	.	.	.	.	.	20ggg-X	.	.	.	.	20ff#X	.	20fff#X	.	20fff#X	.
.	.	.	.	.	.	.	.	.	.	.	.	.	.	.	.	.	.	.	.	.	.	.	.	.	.	.	.	.	.	.	.	.	.	.	.	.	.	.	.	.	.	.	.	20fff-X	.	.	.	.	20ee	.	20eee	.	20eee	.
.	.	.	.	.	.	.	.	.	8x	.	8r	.	8x	.	.	.	.	.	.	.	.	.	.	.	.	.	.	.	.	.	.	.	.	.	.	.	.	.	.	.	.	.	.	.	.	.	.	.	.	.	.	.	.	.
.	.	.	.	.	.	.	.	.	.	.	.	.	.	.	.	.	.	.	.	.	.	.	.	.	.	.	.	.	.	.	.	.	.	.	.	.	.	.	.	.	.	.	.	20eee-	.	.	.	.	20dd#X	.	20ddd#X	.	20ddd#X	.
.	.	.	.	.	.	.	.	.	.	.	.	.	.	.	.	.	.	.	.	.	.	.	.	.	.	.	.	.	.	.	.	.	.	.	.	.	.	.	.	.	.	.	.	20fff-JJ	.	.	.	.	20eeJJ	.	20eeeJJ	.	20eeeJJ	.
=364	=364	=364	=364	=364	=364	=364	=364	=364	=364	=364	=364	=364	=364	=364	=364	=364	=364	=364	=364	=364	=364	=364	=364	=364	=364	=364	=364	=364	=364	=364	=364	=364	=364	=364	=364	=364	=364	=364	=364	=364	=364	=364	=364	=364	=364	=364	=364	=364	=364	=364	=364	=364	=364	=364
16C#X 16F	16r	16r	16r	4r	.	4r	.	16r	4r	.	4r	.	4r	4r	.	4r	.	4r	.	4r	12r	4r	.	16FF	16r	4r	4r	.	16C#X'	16FF'	16r	16r	16r	16r	16r	16r	16C#X'	16F'	4r	.	16r	4r	.	6ggg-X)	.	4r	.	16r	6ff#X)	.	6fff#X)	.	6fff#X)	.
16r	16G 16f#X	16c	16G 16f#X	.	.	.	.	16x'	.	.	.	.	.	.	.	.	.	.	.	.	.	.	.	16r	16C 16G	.	.	.	16r	16r	16G'	16f#X'	16C'	16F#X'	16C'	16F#X'	16r	16r	.	.	16cc'	.	.	.	.	.	.	16c'	.	.	.	.	.	.
.	.	.	.	.	.	.	.	.	.	.	.	.	.	.	.	.	.	.	.	.	12x'	.	.	.	.	.	.	.	.	.	.	.	.	.	.	.	.	.	.	.	.	.	.	.	.	.	.	.	.	.	.	.	.	.
16C# 16F	16r	16r	16r	.	.	.	.	16r	.	.	.	.	.	.	.	.	.	.	.	.	.	.	.	16FF	16r	.	.	.	16C#'	16FF'	16r	16r	16r	16r	16r	16r	16C#'	16F'	.	.	16r	.	.	.	.	.	.	16r	.	.	.	.	.	.
.	.	.	.	.	.	.	.	.	.	.	.	.	.	.	.	.	.	.	.	.	12r	.	.	.	.	.	.	.	.	.	.	.	.	.	.	.	.	.	.	.	.	.	.	[12ggg-^	.	.	.	.	[12ff#^	.	[12fff#^	.	[12fff#^	.
16r	16G 16f#	16c	16G 16f#	.	.	.	.	16x'	.	.	.	.	.	.	.	.	.	.	.	.	.	.	.	16r	16C 16G	.	.	.	16r	16r	16G'	16f#'	16C'	16F#'	16C'	16F#'	16r	16r	.	.	16cc'	.	.	.	.	.	.	16c'	.	.	.	.	.	.
=365	=365	=365	=365	=365	=365	=365	=365	=365	=365	=365	=365	=365	=365	=365	=365	=365	=365	=365	=365	=365	=365	=365	=365	=365	=365	=365	=365	=365	=365	=365	=365	=365	=365	=365	=365	=365	=365	=365	=365	=365	=365	=365	=365	=365	=365	=365	=365	=365	=365	=365	=365	=365	=365	=365
.	.	.	.	.	.	.	.	.	.	.	.	.	.	.	.	.	.	16qqx/LL	.	.	.	.	.	.	.	.	.	.	.	.	.	.	.	.	.	.	.	.	.	.	.	.	.	.	.	.	.	.	.	.	.	.	.	.
.	.	.	.	.	.	.	.	.	.	.	8qx/	.	.	.	.	.	.	16qqx/JJ	.	.	.	.	.	.	.	.	.	.	.	.	.	.	.	.	.	.	.	.	.	.	.	.	.	.	.	.	.	.	.	.	.	.	.	.
4r	4r	4r	4r	4r	.	4x_	pp	4r	4r	.	16xLL	.	4r	4x_	pp	4x_	pp	16x	.	4r	12x^L	4r	.	4r	4r	4r	4r	.	4r	4r	4r	4r	4r	4r	4r	4r	4r	4r	4r	.	4r	4r	.	4ggg-]	.	4r	.	4r	4ff#]	.	4fff#]	.	4fff#]	.
.	.	.	.	.	.	.	.	.	.	.	32xL	.	.	.	.	.	.	16r	.	.	.	.	.	.	.	.	.	.	.	.	.	.	.	.	.	.	.	.	.	.	.	.	.	.	.	.	.	.	.	.	.	.	.	.
.	.	.	.	.	.	.	.	.	.	.	.	.	.	.	.	.	.	.	.	.	12x^	.	.	.	.	.	.	.	.	.	.	.	.	.	.	.	.	.	.	.	.	.	.	.	.	.	.	.	.	.	.	.	.	.
.	.	.	.	.	.	.	.	.	.	.	32xJJJ	.	.	.	.	.	.	.	.	.	.	.	.	.	.	.	.	.	.	.	.	.	.	.	.	.	.	.	.	.	.	.	.	.	.	.	.	.	.	.	.	.	.	.
.	.	.	.	.	.	.	.	.	.	.	.	.	.	.	.	.	.	16qqx/LL	.	.	.	.	.	.	.	.	.	.	.	.	.	.	.	.	.	.	.	.	.	.	.	.	.	.	.	.	.	.	.	.	.	.	.	.
.	.	.	.	.	.	.	.	.	.	.	8qx/	.	.	.	.	.	.	16qqx/JJ	.	.	.	.	.	.	.	.	.	.	.	.	.	.	.	.	.	.	.	.	.	.	.	.	.	.	.	.	.	.	.	.	.	.	.	.
.	.	.	.	.	.	.	.	.	.	.	16xLL	.	.	.	.	.	.	16x	.	.	.	.	.	.	.	.	.	.	.	.	.	.	.	.	.	.	.	.	.	.	.	.	.	.	.	.	.	.	.	.	.	.	.	.
.	.	.	.	.	.	.	.	.	.	.	.	.	.	.	.	.	.	.	.	.	12x^J	.	.	.	.	.	.	.	.	.	.	.	.	.	.	.	.	.	.	.	.	.	.	.	.	.	.	.	.	.	.	.	.	.
.	.	.	.	.	.	.	.	.	.	.	32xL	.	.	.	.	.	.	16r	.	.	.	.	.	.	.	.	.	.	.	.	.	.	.	.	.	.	.	.	.	.	.	.	.	.	.	.	.	.	.	.	.	.	.	.
.	.	.	.	.	.	.	.	.	.	.	32xJJJ	.	.	.	.	.	.	.	.	.	.	.	.	.	.	.	.	.	.	.	.	.	.	.	.	.	.	.	.	.	.	.	.	.	.	.	.	.	.	.	.	.	.	.
=366	=366	=366	=366	=366	=366	=366	=366	=366	=366	=366	=366	=366	=366	=366	=366	=366	=366	=366	=366	=366	=366	=366	=366	=366	=366	=366	=366	=366	=366	=366	=366	=366	=366	=366	=366	=366	=366	=366	=366	=366	=366	=366	=366	=366	=366	=366	=366	=366	=366	=366	=366	=366	=366	=366
16C#X 16F	16r	16r	16r	4r	.	4r	.	16r	4r	.	4r	.	4r	4r	.	4r	.	4r	.	4r	4x^	4r	.	16FF	16r	4r	4r	.	16C#X'	16FF'	16r	16r	16r	16r	16r	16r	16C#X'	16F'	4r	.	16r	4r	.	12aaa--XL	.	4r	.	16r	12ggL	.	12gggL	.	12gggL	.
16r	16G 16f#X	16c	16G 16f#X	.	.	.	.	16x'	.	.	.	.	.	.	.	.	.	.	.	.	.	.	.	16r	16C 16G	.	.	.	16r	16r	16G'	16f#X'	16C'	16F#X'	16C'	16F#X'	16r	16r	.	.	16cc'	.	.	.	.	.	.	16c'	.	.	.	.	.	.
.	.	.	.	.	.	.	.	.	.	.	.	.	.	.	.	.	.	.	.	.	.	.	.	.	.	.	.	.	.	.	.	.	.	.	.	.	.	.	.	.	.	.	.	12bbb--X	.	.	.	.	12aa	.	12aaa	.	12aaa	.
16C# 16F	8r	8r	8r	.	.	.	.	8r	.	.	.	.	.	.	.	.	.	.	.	.	.	.	.	16FF	8r	.	.	.	16C#'	16FF'	8r	8r	8r	8r	8r	8r	16C#'	16F'	.	.	8r	.	.	.	.	.	.	8r	.	.	.	.	.	.
.	.	.	.	.	.	.	.	.	.	.	.	.	.	.	.	.	.	.	.	.	.	.	.	.	.	.	.	.	.	.	.	.	.	.	.	.	.	.	.	.	.	.	.	12cccc--J	.	.	.	.	12bb-XJ	.	12bbb-XJ	.	12bbb-XJ	.
16r	.	.	.	.	.	.	.	.	.	.	.	.	.	.	.	.	.	.	.	.	.	.	.	16r	.	.	.	.	16r	16r	.	.	.	.	.	.	16r	16r	.	.	.	.	.	.	.	.	.	.	.	.	.	.	.	.
=367	=367	=367	=367	=367	=367	=367	=367	=367	=367	=367	=367	=367	=367	=367	=367	=367	=367	=367	=367	=367	=367	=367	=367	=367	=367	=367	=367	=367	=367	=367	=367	=367	=367	=367	=367	=367	=367	=367	=367	=367	=367	=367	=367	=367	=367	=367	=367	=367	=367	=367	=367	=367	=367	=367
!	!	!	!	!	!	!	!	!	!	!	!	!	!	!	!	!	!	!	!	!	!	!	!	!	!	!	!LO:TX:t=a2 sons étouffés. Pincez les cordes très près de la table	!	!	!	!	!	!	!	!	!	!	!	!	!	!	!	!	!	!	!	!	!	!	!	!	!	!	!
4r	4r	4r	4r	4r	.	4x_	pp	4r	4r	.	4r	.	4r	4x_	pp	4x_	pp	4r	.	4r	4x	4r	.	4r	4r	4r	4r	.	4r	4r	4r	4r	4r	4r	4r	4r	4r	4r	4r	.	4r	4r	.	(>24bbb--XLL	.	4r	.	4r	(>24aaLL	.	(>24aaaLL	.	(>24aaaLL	.
.	.	.	.	.	.	.	.	.	.	.	.	.	.	.	.	.	.	.	.	.	.	.	.	.	.	.	.	.	.	.	.	.	.	.	.	.	.	.	.	.	.	.	.	24cccc--	.	.	.	.	24bb-X	.	24bbb-X	.	24bbb-X	.
.	.	.	.	.	.	.	.	.	.	.	.	.	.	.	.	.	.	.	.	.	.	.	.	.	.	.	.	.	.	.	.	.	.	.	.	.	.	.	.	.	.	.	.	24bbb--JJ	.	.	.	.	24aaJJ	.	24aaaJJ	.	24aaaJJ	.
.	.	.	.	.	.	.	.	.	.	.	.	.	.	.	.	.	.	.	.	.	.	.	.	.	.	.	.	.	.	.	.	.	.	.	.	.	.	.	.	.	.	.	.	24aaa--XLL	.	.	.	.	24ggLL	.	24gggLL	.	24gggLL	.
.	.	.	.	.	.	.	.	.	.	.	.	.	.	.	.	.	.	.	.	.	.	.	.	.	.	.	.	.	.	.	.	.	.	.	.	.	.	.	.	.	.	.	.	24bbb--	.	.	.	.	24aa	.	24aaa	.	24aaa	.
.	.	.	.	.	.	.	.	.	.	.	.	.	.	.	.	.	.	.	.	.	.	.	.	.	.	.	.	.	.	.	.	.	.	.	.	.	.	.	.	.	.	.	.	24aaa--JJ	.	.	.	.	24ggJJ	.	24gggJJ	.	24gggJJ	.
=368	=368	=368	=368	=368	=368	=368	=368	=368	=368	=368	=368	=368	=368	=368	=368	=368	=368	=368	=368	=368	=368	=368	=368	=368	=368	=368	=368	=368	=368	=368	=368	=368	=368	=368	=368	=368	=368	=368	=368	=368	=368	=368	=368	=368	=368	=368	=368	=368	=368	=368	=368	=368	=368	=368
*M3/8	*M3/8	*M3/8	*M3/8	*M3/8	*	*M3/8	*	*M3/8	*M3/8	*	*M3/8	*	*M3/8	*M3/8	*	*M3/8	*	*M3/8	*	*M3/8	*M3/8	*M3/8	*	*M3/8	*M3/8	*M3/8	*M3/8	*	*M3/8	*M3/8	*M3/8	*M3/8	*M3/8	*M3/8	*M3/8	*M3/8	*M3/8	*M3/8	*M3/8	*	*M3/8	*M3/8	*	*M3/8	*	*M3/8	*	*M3/8	*M3/8	*	*M3/8	*	*M3/8	*
!	!	!	!	!	!	!	!	!	!	!	!LO:TX:i:t=tres sec	!	!	!	!	!LO:TX:t=a2	!	!	!	!	!	!	!	!	!	!	!	!	!	!	!	!	!	!	!	!	!	!	!	!	!	!	!	!	!	!	!	!	!	!	!	!	!	!
16A#X 16d#X	16r	16r	16r	16r	.	8r	.	16x'	16r	.	16r	.	16r	8r	.	16r	.	4.x	pp	8%3r	8%3r	16r	.	8r	8r	16r	8%3r	.	16A#X'	16D#X'	16r	16r	16r	16r	16r	16r	16A#X'	16d#X'	16r	.	16r	16r	.	24ggg-XLL	.	16r	.	16r	24ff#XLL	.	24fff#XLL	.	24fff#XLL	.
.	.	.	.	.	.	.	.	.	.	.	.	.	.	.	.	.	.	.	.	.	.	.	.	.	.	.	.	.	.	.	.	.	.	.	.	.	.	.	.	.	.	.	.	24aaa--X	.	.	.	.	24gg	.	24ggg	.	24ggg	.
!	!	!	!	!LO:TX:t=senza sord. pizz.	!	!	!	!	!	!	!	!	!	!	!	!	!	!	!	!	!	!LO:TX:i:t=loco sempre	!	!	!	!	!LO:TX:t=pizz.	!	!	!	!	!	!	!	!	!	!	!	!LO:TX:t=a3	!	!	!LO:TX:t=a3	!	!	!	!	!	!	!	!	!	!	!	!
.	.	.	.	.	.	.	.	.	.	.	8qx/	ff	.	.	.	.	.	.	.	.	.	.	.	.	.	.	.	.	.	.	.	.	.	.	.	.	.	.	.	.	.	.	.	.	.	.	.	.	.	.	.	.	.	.
16r	16G 16f#X	16B	16G 16f#X	16d	ff	.	.	16r	16x^	ff	16x	.	16x'	.	.	16x]	ff	.	.	.	.	16d	f	.	.	16D-Xv	.	ff	16r	16r	16G'	16f#X'	16BB'	16F#X'	16BB'	16F#X'	16r	16r	16D-X'	ff	16b'	16e--X'	ff	.	.	16d-X'	ff	16B'	.	.	.	.	.	.
.	.	.	.	.	.	.	.	.	.	.	.	.	.	.	.	.	.	.	.	.	.	.	.	.	.	.	.	.	.	.	.	.	.	.	.	.	.	.	.	.	.	.	.	24ggg-JJ	.	.	.	.	24ff#JJ	.	24fff#JJ	.	24fff#JJ	.
16C#X 16F	16r	16r	16r	16r	.	8x]	f	8r	16r	.	16r	.	16r	8r	.	8r	.	.	.	.	.	16r	.	16FF	16r	16r	.	.	16C#X'	16FF'	16r	16r	16r	16r	16r	16r	16C#X'	16F'	16r	.	16r	16r	.	24fff-XLL	.	16r	.	16r	24eeLL	.	24eeeLL	.	24eeeLL	.
.	.	.	.	.	.	.	.	.	.	.	.	.	.	.	.	.	.	.	.	.	.	.	.	.	.	.	.	.	.	.	.	.	.	.	.	.	.	.	.	.	.	.	.	24eee-	.	.	.	.	24dd#X	.	24ddd#X	.	24ddd#X	.
.	.	.	.	.	.	.	.	.	.	.	8qx/	.	.	.	.	.	.	.	.	.	.	.	.	.	.	.	.	.	.	.	.	.	.	.	.	.	.	.	.	.	.	.	.	.	.	.	.	.	.	.	.	.	.	.
16r	16A 16f#	16c	16A 16f#	16g#X	.	.	.	.	16x^	.	16x	.	16x'	.	.	.	.	.	.	.	.	16g#X	.	16r	16C 16G	16Gv	.	.	16r	16r	16A'	16f#'	16C'	16F#'	16C'	16F#'	16r	16r	16G'	.	16cc'	16a-X'	.	.	.	16g'	.	16c'	.	.	.	.	.	.
.	.	.	.	.	.	.	.	.	.	.	.	.	.	.	.	.	.	.	.	.	.	.	.	.	.	.	.	.	.	.	.	.	.	.	.	.	.	.	.	.	.	.	.	24fff-JJ	.	.	.	.	24eeJJ	.	24eeeJJ	.	24eeeJJ	.
16DDni 16GG#X	16r	16r	16r	16r	.	8r	.	8r	16r	.	16r	.	16r	16r	.	8r	.	.	.	.	.	16r	.	8r	8r	16r	.	.	16DD'	16BBB#X'	16r	16r	16r	16r	16r	16r	16DD'	16GG#X'	16r	.	16r	16r	.	[8ggg-^	.	16r	.	16r	[8ff#X^	.	[8fff#X^	.	[8fff#X^	.
.	.	.	.	.	.	.	.	.	.	.	8qx/	.	.	.	.	.	.	.	.	.	.	.	.	.	.	.	.	.	.	.	.	.	.	.	.	.	.	.	.	.	.	.	.	.	.	.	.	.	.	.	.	.	.	.
16r	16G 16f#	16B	16G 16f#	16cc#X	.	.	.	.	16x^	.	16x	.	16x'	16x]	ff	.	.	.	.	.	.	16cc#X	.	.	.	16cv	.	.	16r	16r	16G'	16f#'	16BB'	16F#'	16BB'	16F#'	16r	16r	16c'	.	16b'	16dd-X'	.	.	.	16cc'	.	16B'	.	.	.	.	.	.
=369	=369	=369	=369	=369	=369	=369	=369	=369	=369	=369	=369	=369	=369	=369	=369	=369	=369	=369	=369	=369	=369	=369	=369	=369	=369	=369	=369	=369	=369	=369	=369	=369	=369	=369	=369	=369	=369	=369	=369	=369	=369	=369	=369	=369	=369	=369	=369	=369	=369	=369	=369	=369	=369	=369
*M2/8	*M2/8	*M2/8	*M2/8	*M2/8	*	*M2/8	*	*M2/8	*M2/8	*	*M2/8	*	*M2/8	*M2/8	*	*M2/8	*	*M2/8	*	*M2/8	*M2/8	*M2/8	*	*M2/8	*M2/8	*M2/8	*M2/8	*	*M2/8	*M2/8	*M2/8	*M2/8	*M2/8	*M2/8	*M2/8	*M2/8	*M2/8	*M2/8	*M2/8	*	*M2/8	*M2/8	*	*M2/8	*	*M2/8	*	*M2/8	*M2/8	*	*M2/8	*	*M2/8	*
4r	4r	4r	4r	4r	.	4r	.	4r	4r	.	4r	.	4r	4r	.	4r	.	4r	.	4x	(>4x	4r	.	4r	4r	4r	4r	.	4r	4r	4r	4r	4r	4r	4r	4r	4r	4r	4r	.	4r	4r	.	16ggg-])	.	4r	.	4r	16ff#])	.	16fff#])	.	16fff#])	.
.	.	.	.	.	.	.	.	.	.	.	.	.	.	.	.	.	.	.	.	.	.	.	.	.	.	.	.	.	.	.	.	.	.	.	.	.	.	.	.	.	.	.	.	16r	.	.	.	.	16r	.	16r	.	16r	.
!	!	!	!	!	!	!	!	!	!	!	!	!	!	!	!	!	!	!	!	!	!	!	!	!	!	!	!	!	!	!	!	!	!	!	!	!	!	!	!	!	!	!	!	!LO:TX:i:t=piu	!	!	!	!	!LO:TX:i:t=piu	!	!LO:TX:i:t=piu	!	!LO:TX:i:t=piu	!
.	.	.	.	.	.	.	.	.	.	.	.	.	.	.	.	.	.	.	.	.	.	.	.	.	.	.	.	.	.	.	.	.	.	.	.	.	.	.	.	.	.	.	.	[8ggg-X	p	.	.	.	[8ff#X	p	[8fff#X	p	[8fff#X	p
=370	=370	=370	=370	=370	=370	=370	=370	=370	=370	=370	=370	=370	=370	=370	=370	=370	=370	=370	=370	=370	=370	=370	=370	=370	=370	=370	=370	=370	=370	=370	=370	=370	=370	=370	=370	=370	=370	=370	=370	=370	=370	=370	=370	=370	=370	=370	=370	=370	=370	=370	=370	=370	=370	=370
16C#X 16F	16r	16r	16r	4r	.	[4x	.	4r	4r	.	4r	.	4r	4r	.	4r	.	4r	.	4r	4x)	4r	.	16FF	16r	4r	4r	.	16C#X'	16FF'	16r	16r	16r	16r	16r	16r	16C#X'	16F'	4r	.	16r	4r	.	4ggg-]	[	4r	.	16r	4ff#]	[	4fff#]	[	4fff#]	[
16r	16G 16f#X	16c	16G 16f#X	.	.	.	.	.	.	.	.	.	.	.	.	.	.	.	.	.	.	.	.	16r	16C 16G	.	.	.	16r	16r	16G'	16f#X'	16C'	16F#X'	16C'	16F#X'	16r	16r	.	.	16cc'	.	.	.	.	.	.	16c'	.	.	.	.	.	.
16C# 16F	16r	16r	16r	.	.	.	.	.	.	.	.	.	.	.	.	.	.	.	.	.	.	.	.	16FF	16r	.	.	.	16C#'	16FF'	16r	16r	16r	16r	16r	16r	16C#'	16F'	.	.	16r	.	.	.	.	.	.	16r	.	.	.	.	.	.
16r	16G 16f#	16c	16G 16f#	.	.	.	.	.	.	.	.	.	.	.	.	.	.	.	.	.	.	.	.	16r	16C 16G	.	.	.	16r	16r	16G'	16f#'	16C'	16F#'	16C'	16F#'	16r	16r	.	.	16cc'	.	.	.	.	.	.	16c'	.	.	.	.	.	.
==	==	==	==	==	==	==	==	==	==	==	==	==	==	==	==	==	==	==	==	==	==	==	==	==	==	==	==	==	==	==	==	==	==	==	==	==	==	==	==	==	==	==	==	==	==	==	==	==	==	==	==	==	==	==
*-	*-	*-	*-	*-	*-	*-	*-	*-	*-	*-	*-	*-	*-	*-	*-	*-	*-	*-	*-	*-	*-	*-	*-	*-	*-	*-	*-	*-	*-	*-	*-	*-	*-	*-	*-	*-	*-	*-	*-	*-	*-	*-	*-	*-	*-	*-	*-	*-	*-	*-	*-	*-	*-	*-
!!!CDT: 1883/12/22-1965/11/06
!!!CBL: Paris, France
!!!CDL: New York, United States
!!!CNT: French, American
!!!AGN: Orchestral; Symphonic
!!!MCN: Stokowski, Leopold
!!!MDT: 1926/04/09
!!!MGN: Philadelphia Orchestra
!!!MLC: Philadelphia, Pennsylvania, United States of America
!!!MPD: 1926
!!!MPN:
!!!ODT: 1921
!!!PDT: 1925
!!!excerpt-start-measure: 363
!!!excerpt-end-measure: 370
!!!excerpt-start-time: 16:11
!!!excerpt-end-time: 16:17
!!!EEV: 2020/01/17
!!!system-decoration: s1,s2,s3,s4,s5,s6,s7,s8,s9,s10,s11,s12,s13,s14,s15,s16,s17,s18,s19{(s20,s21)}s22,s23,s24,s25,s26,s27,s28,s29,s30,s31,s32,s33,s34,s35,s36,s37,s38,s39
!!!RDF**kern: > = above
!!!RDF**kern: i = editorial accidental
!!!ONB: Converted from MusicXML on 2020/01/17
